X: 999
T: Vicksburg Stomp
C:Charlie McCoy
B: jims roots
M:4/4
L:1/8
Q: 1/4=100
K:E
V:1 
"A7"A,A, C2 E2 F2 | =GF EG- GE F2 | "E"EE G2 B2 c2 | "C#7"ec- cG Bc- cB | "B7"f=d- dc B2-B =c |
"A/C#"^ce- e"B7"c B=G- GF | "E"E2 [E=D][E=D] [EC][EC] [E=C][E=C]| [E2B,2][EB][EB]Z2|]
"E"(=g4 (e4) | (=g4) e4) | (e6 (B2) | "E7"=d8)| "A"(=g4 (e4) | (=g4) e4) | "E"EE G2 B2 c2 | "C#7"ec- cG Bc- cB|
"B"f=d- dc B2- B=c | "A/C#" ^ce- ec "B"B=G GF | "E"E2 [E=D][E=D] [EC][EC] [E=C][E=C]| [E2B,2][EB][EB] z G-G3/2 F/ |]
|:"E"E2 e2 ecB2 | e2c B2 =G3/2E/ F2| E2 e2 ecB2 | e2c B2 =G3/2E/ F2 |
"A7"A,A, C2 E2 F2 | =GF EG- GE F2 | "E"EE G2 B2 c2 | "C#7"ec- cG Bc- cB | "B7"f=d- dc B2-B =c |
"A/C#"^ce- e"B7"c B=G- GF | "E"E2 [E=D][E=D] [EC][EC] [E=C][E=C]| [E2B,2][EB][EB]Z2:|
V:B2E2B,2 
 "E"B=c ^c4 | [B2E2B,2] B=c ^c4 | [B2E2B,2] B=c ^c2e2 | "E7"=g^g =ge- ec B2 |
% abcbook-tune_id 6298c297e649671fff9becf7


% abcbook-boost 0
% abcbook-tablature 
% abcbook-transpose 
% abcbook-lastupdated 1654178456530
% abcbook-soundfonts 
% abcbook-repeats 1


